docs/images/icons/youtube.svg

<svg width="40" height="40" fill="none" xmlns="http://www.w3.org/2000/svg"><defs><clipPath id="a"><path fill="#fff" fill-opacity="0" d="M0 0h40v40H0z"/></clipPath></defs><path d="M0 0h40v40H0z"/><g clip-path="url(#a)" stroke="#FFF" stroke-width="1.792" stroke-linejoin="round"><path d="M34.84 10.12c-.51-.51-1.16-.88-1.86-1.07-1.93-.75-20.61-1.11-26.03.02-.71.19-1.35.56-1.87 1.08-.51.51-.89 1.16-1.08 1.86-.87 3.82-.93 12.08.02 15.98.19.71.57 1.35 1.08 1.87.52.52 1.16.89 1.87 1.08 3.82.88 21.98 1 26.03 0 .71-.19 1.35-.56 1.87-1.08.51-.52.88-1.16 1.07-1.87.93-4.16 1-11.9-.02-16-.19-.71-.56-1.35-1.08-1.87Z"/><path d="M16.76 15v9.98l8.71-4.99L16.76 15Z"/></g></svg>

<svg width="40.000000" height="40.000000" viewBox="0 0 40 40" fill="none" xmlns="http://www.w3.org/2000/svg" xmlns:xlink="http://www.w3.org/1999/xlink">
	<desc>
			Created with Pixso.
	</desc>
	<defs>
		<clipPath id="clip339_382">
			<rect id="youtube-svgrepo-com (1) 1" width="40.000000" height="40.000000" fill="white" fill-opacity="0"/>
		</clipPath>
	</defs>
	<rect id="youtube-svgrepo-com (1) 1" width="40.000000" height="40.000000" fill="#FFFFFF" fill-opacity="0"/>
	<g clip-path="url(#clip339_382)">
		<path id="Vector" d="M34.84 10.12C34.33 9.61 33.68 9.24 32.98 9.05C31.05 8.3 12.37 7.94 6.95 9.07C6.24 9.26 5.6 9.63 5.08 10.15C4.57 10.66 4.19 11.31 4 12.01C3.13 15.83 3.07 24.09 4.02 27.99C4.21 28.7 4.59 29.34 5.1 29.86C5.62 30.38 6.26 30.75 6.97 30.94C10.79 31.82 28.95 31.94 33 30.94C33.71 30.75 34.35 30.38 34.87 29.86C35.38 29.34 35.75 28.7 35.94 27.99C36.87 23.83 36.94 16.09 35.92 11.99C35.73 11.28 35.36 10.64 34.84 10.12Z" stroke="#FFFFFF" stroke-opacity="1.000000" stroke-width="1.792115" stroke-linejoin="round"/>
		<path id="Vector" d="M16.76 15L16.76 24.98L25.47 19.99L16.76 15Z" stroke="#FFFFFF" stroke-opacity="1.000000" stroke-width="1.792115" stroke-linejoin="round"/>
	</g>
</svg>
